public/piece/icpieces/wB.svg

<svg xmlns="http://www.w3.org/2000/svg" width="368" height="368"><path d="M177 100c-9.024 9.1-15.253 20.38-22.333 31-16.37 24.555-37.207 52.66-29.189 84 5.537 21.639 23.505 36.427 30.522 57-15.709 6.769-31.843 14.784-47 22.781-6.306 3.327-14.827 6.943-18.633 13.259C85.448 316.199 87 326.901 87 336h194c0-9.099 1.551-19.801-3.367-27.96-3.806-6.316-12.327-9.932-18.633-13.259-15.281-8.062-31.352-15.475-47-22.781 7.017-20.573 24.985-35.361 30.522-57 8.308-32.472-14.431-62.869-31.805-88-6.418-9.283-11.721-18.936-19.717-27 18.943-7.344 13.132-35.97-7-35.97-20.132 0-25.943 28.626-7 35.97z" style="fill:#000;stroke:none"/><path d="M182.005 74.613c-11.341 2.725-6.334 19.166 4.952 15.953 10.125-2.883 5.033-18.353-4.952-15.953M125 298c3.959 1.661 8.74 1 13 1h105c-8.776-6.642-20.599-9.217-30-15.066-3.88-2.413-8.625-5.412-10.243-9.935-2.353-6.58 3.5-14.856 6.91-19.999 8.171-12.324 17.917-24.661 22.294-39 8.45-27.686-10.359-50.365-22.961-73h-2c-6.577 13.906-16.215 26.843-24.203 40-2.624 4.322-6.213 13.517-10.721 16.003-2.653 1.463-6.719-1.902-9.076-3.003 9.711-12.727 17.151-27.457 25.681-41 3.62-5.747 10.254-13.281 11.562-20 1.135-5.829-5.762-13.539-8.914-17.981-1.441-2.031-2.88-4.052-5.422-4.696-8.544-2.168-13.973 12.047-17.599 17.677-12.848 19.947-30.056 39.775-33.869 64-3.102 19.705 7.454 36.339 17.894 52 4.847 7.269 14.306 17.533 13.345 27-.492 4.845-4.958 8.124-8.678 10.64-9.424 6.376-21.244 11.698-32 15.36m-28 28h174c-.012-4.383.116-9.141-2.703-12.811C262.327 305.417 243.755 309 235 309H130c-8.942 0-26.573-3.617-31.427 6.04-1.706 3.394-1.563 7.27-1.573 10.96z" style="fill:#fff;stroke:none"/></svg>

<?xml version="1.0" standalone="yes"?>
<svg xmlns="http://www.w3.org/2000/svg" width="368" height="368">
<path style="fill:#000000; stroke:none;" d="M177 100C167.976 109.1 161.747 120.38 154.667 131C138.297 155.555 117.46 183.66 125.478 215C131.015 236.639 148.983 251.427 156 272C140.291 278.769 124.157 286.784 109 294.781C102.694 298.108 94.1731 301.724 90.3665 308.04C85.4494 316.199 87 326.901 87 336L281 336C281 326.901 282.551 316.199 277.633 308.04C273.827 301.724 265.306 298.108 259 294.781C243.719 286.719 227.648 279.306 212 272C219.017 251.427 236.985 236.639 242.522 215C250.83 182.528 228.091 152.131 210.717 127C204.299 117.717 198.996 108.064 191 100C209.943 92.6564 204.132 64.0293 184 64.0293C163.868 64.0293 158.057 92.6564 177 100z"/>
<path style="fill:#ffffff; stroke:none;" d="M182.005 74.6126C170.664 77.338 175.671 93.7789 186.957 90.5656C197.082 87.6828 191.99 72.213 182.005 74.6126M125 298C128.959 299.661 133.74 299 138 299L161 299L243 299C234.224 292.358 222.401 289.783 213 283.934C209.12 281.521 204.375 278.522 202.757 273.999C200.404 267.419 206.257 259.143 209.667 254C217.838 241.676 227.584 229.339 231.961 215C240.411 187.314 221.602 164.635 209 142L207 142C200.423 155.906 190.785 168.843 182.797 182C180.173 186.322 176.584 195.517 172.076 198.003C169.423 199.466 165.357 196.101 163 195C172.711 182.273 180.151 167.543 188.681 154C192.301 148.253 198.935 140.719 200.243 134C201.378 128.171 194.481 120.461 191.329 116.019C189.888 113.988 188.449 111.967 185.907 111.323C177.363 109.155 171.934 123.37 168.308 129C155.46 148.947 138.252 168.775 134.439 193C131.337 212.705 141.893 229.339 152.333 245C157.18 252.269 166.639 262.533 165.678 272C165.186 276.845 160.72 280.124 157 282.64C147.576 289.016 135.756 294.338 125 298M97 326L271 326C270.988 321.617 271.116 316.859 268.297 313.189C262.327 305.417 243.755 309 235 309L130 309C121.058 309 103.427 305.383 98.5725 315.04C96.8667 318.434 97.0102 322.31 97 326z"/>
</svg>
